X:1
T: St. Katherine's
N:
C:
S:
A:
O:
R:
M:4/4
K:G
I:speed 220
%W:       A1
% voice 1 (1 lines, 41 notes)
K:G
M:4/4
L:1/16
d2 e2 |d4 G4 G4 A4 |B12 A2 B2 |c2 d2 c2 B2 A2 B2 A2 G2 |F2 G2 A4 A4 d2 e2 |d4 G4 G4 A4 |B12 A2 B2 |c2 B2 A2 G2 F2 G2 A2 F2 |G12 d2 e2 |
%W:       A2
% voice 1 (1 lines, 39 notes)
d4 G4 G4 A4 |B12 A2 B2 |c2 d2 c2 B2 A2 B2 A2 G2 |F2 G2 A4 A4 d2 e2 |d4 G4 G4 A4 |B12 A2 B2 |c2 B2 A2 G2 F2 G2 A2 F2 |G12 A2 B2 |
%W:       B
% voice 1 (1 lines, 33 notes)
A4 D4 D4 E4 |F12 A2 B2 |A4 D4 F4 A4 |B12 B2 c2 |B4 B4 e4 B4 |c12 c2 B2 |A2 B2 A2 G2 F2 G2 A2 F2 |G4 E8 B2 c2 |
%W:
% voice 1 (1 lines, 33 notes)
B4 B4 e4 B4 |c12 c2 B2 |A4 A4 d4 A4 |B12 d2 e2 |d4 d4 g4 d4 |e2 d2 c2 B2 A4 d4 |e2 d2 c2 B2 c2 B2 A2 G2 |G12 ||
